X: 11300
T: Eadar Alba Is Eirinn
R: reel
M: 4/4
K: Adorian
|:B|~A2 AG AEEE|ABcd eeed|B2 BA BGGG|B/A/G AG EGDG|
EAAG ABcd|eeed B2 BB|g2 gd egdG|1 BAAG AAA:|2 BAAG ~A3z||
|:gaag aeee|fgge dBAB|EG G/G/G BG G/G/G|B/A/G AG EGDG|
EAAG ABcd|eeed B2 BB|g2 gd egdG|BAAG ~A3z:|

